public/avatar/hat/97.svg

<svg xmlns:xlink="http://www.w3.org/1999/xlink" height="92.9" width="100.7" xmlns="http://www.w3.org/2000/svg"><use height="27.25" transform="translate(16.6 37.25)" width="43.05" xlink:href="#a"/><defs><g id="a"><path d="M6.75-.55Q8.6.4 9.35 2.9l1.05.5q1.2.75 1.8 1.7.75 1.15.35 2.1-.45.95-1.7.95-1.05 0-2.3-1.45l-1.1-1.45q1.65 4.35.2 4.6-.95.15-2.9-1.65L3 6.35Q2.05 10.4.45 10.6q-1.05.1-2.05-1.9l-.8-2.05q-2.1 4-4 3.75-1.2-.1-1.05-2.3l.4-2.15Q-9.5 10.3-11.4 10.1q-3.65-.5-1.65-3.75l2.55-1.85.5-1.4q.65-1.5 1.25-1.95 1-.65 4.05-.8l.8-1.1q1.15-1.1 2.95-1.15Q1.9-2 2.75-.65l1.3-.3q1.5-.2 2.7.4" fill="#e53cd2" fill-rule="evenodd" transform="translate(22.05 12.5)"/><path d="m10.05 3.4 1.1 1.25Q12.4 6.25 13 7.9q.95 2.65-.15 4.65l-1.8-6.25-1.4-2.8.4-.1" fill="#e53cd2" fill-rule="evenodd" transform="translate(22.05 12.5)"/><path d="m9.5 5.15 2.65 3.1q.4 1 .7 4.3L8.6 8.1Q3.25.45 9.5 5.15m-20.05.15.6.5q.6.7.45 1.65-.15 1.15-2.15 3.75-.85 1.45-2.45 3.05-.65-2.85.35-5.4.6-1.55 1.95-2.7l1.25-.85" fill="#e53cd2" fill-rule="evenodd" transform="translate(22.05 12.5)"/><path d="M11.5 9.25 9.55 3.1l.7.5 1.9.55q1.65.15 1.9-.8L15.1 6.9q-.15-.3-1.4.4l-2.2 1.95" fill="#e53cd2" fill-rule="evenodd" transform="translate(22.05 12.5)"/><path d="M17.8 10.1q-1.1.5-2.8-1.2-1.45-1.45-2.4-3.45.15-1.35.55-2.75.75-2.75 1.95-2.9Q17-.45 17 2.55l.85-.65q1-.45 2 .5 1.6 1.5-1.7 2.5l1 .45q1.05.6 1.25 1.5.3 1.5-1.8 1 .8 1.55-.8 2.25m-28.25-5.25q-1.55 5.2-3 4.3l-2.25-.95.25-3 2.3.05 2.7-.4" fill="#e53cd2" fill-rule="evenodd" transform="translate(22.05 12.5)"/><path d="M-14.55 3q.75 1.75.8 3.85-2.9 5.3-4.7 4.55-1.8-.7-.55-3.4-1.8.95-2.6-1.2-.45-1.3 1-1.5l1.6.1q-1.6-1.4-1.25-2.85.2-.9 1.15-.55l.9.5Q-18.3.75-16.55.9q1.2.1 2 2.1M.9-5.65l.05 2.9Q1.1-1.3 2.4.05l-6.8.3q1-.8 1.55-2.5.5-1.7.45-3.05l3.3-.45" fill="#e53cd2" fill-rule="evenodd" transform="translate(22.05 12.5)"/><path d="M2.05-.65h-.4v.35l-2.6-.1-2.65.5.85-1.65h.9q2.7-.95 3.9.9" fill="#c233b2" fill-rule="evenodd" transform="translate(22.05 12.5)"/><path d="M2.45-4.7Q.7-3.25-1.2-2.75q-4.85-2.6-4.55-4.65.25-2 2.95-1.25l-.4-1q-.15-1.2.95-2 1.8-1.25 1.85 2.4l.65-.95q.85-1 1.7-.95 1.4.05.4 2.15Q4-9.45 4.2-7.6q.15 1.3-1.75 2.9" fill="#e53cd2" fill-rule="evenodd" transform="translate(22.05 12.5)"/><path d="M.85-3.55q-1.4.95-2.35.5L-2-3.3l-1.4-1.3q-1.2-.85-1.1-1.3.15-.9 2.45.55l.5-1.2q.25-.35.8.45.4.6 1.1.6l1.7-.05q.25 1.05-1.2 2" fill="#c233b2" fill-rule="evenodd" transform="translate(22.05 12.5)"/><path d="M3.35-.2 6.2-1.85q1-.8.85-.9L9.7-1.3l-.75 1-.2 2.15L3.35-.2" fill="#e53cd2" fill-rule="evenodd" transform="translate(22.05 12.5)"/><path d="M9.95-6.75q1.7-.05.25 2.4l.8-.35 1.5.2q.85.65-.6 1.55 1.25.45.65 1.75-.4.9-2.4 1.05-1.8.1-3.2-.45-.5-.95-.85-2.05-.7-2.2-.1-2.95.95-1.2 2.45.55l.15-.85q.3-.85 1.35-.85" fill="#e53cd2" fill-rule="evenodd" transform="translate(22.05 12.5)"/><path d="M9.35-1.15q1.05-.15.8.6-.05.25-1.2.25-1.05-.05-2.2-1.45v-.05q-.35-.8-.35-1.75.85-.3 1.25.25.55.75.65.75l1.35.1q.25.3-.3 1.3" fill="#c233b2" fill-rule="evenodd" transform="translate(22.05 12.5)"/><path d="m-9.1-1.45.85 1.35q.8.55 2.35.7l-3.6 3.2-1.15-2.6q-.2-.8-.5-.8l-.25.15 2.3-2" fill="#e53cd2" fill-rule="evenodd" transform="translate(22.05 12.5)"/><path d="M-11.2-5.35q.9-.65 1.6 1.05l.55-.4q.65-.25 1.2.4.65.75.1 2.6-.5 1.65-1.5 2.9-4.15.9-4.85-.55-.4-.85.45-1.65l.95-.6q-1.5-.45-.95-2.15.6-1.65 2.2.65l-.2-.9q-.1-.95.45-1.35" fill="#e53cd2" fill-rule="evenodd" transform="translate(22.05 12.5)"/><path d="M-12.45-.55q.7-1.05 2.8-.35l.4-.35.5-.1q.6.25.6 1.1l-.35.7q-.25.75-2.5.5t-1.45-1.5" fill="#c233b2" fill-rule="evenodd" transform="translate(22.05 12.5)"/><path d="M-13.65 5q-2.1-5.25-3.7-4.15-1.5 1.05-.9 1.6l-.9-.5q-1-.3-1.1.8-.15 1.85 1.4 2.75l-1.55-.05q-1.5.2-1 1.55.8 2.2 2.4 1-.85 3.2.9 3.5 1.75.35 4-3.55m.2-.2-.35 3.6.15 2.9M-8.1.1q1.75-3.85.35-5-.85-.7-1.45-.15l-.4.75q-.6-2.05-1.5-1.35-.55.45-.55 1.45l.15.9q-1.85-1.75-2.25-.2-.4 1.6 1.05 1.9l-1.1.85q-.9.95-.2 1.7 1.15 1.15 3.75.4M-2.7-3.5q-3.6-2.1-2.95-4.35.7-2.25 2.85-.8l-.4-.95q-.2-1.15.95-2.05Q-.4-13-.4-9.25l.7-1.15q.9-1.05 2-.55 1.8.8 0 2.2Q4.75-10.1 4.6-7.2q-.1 2.45-3.8 4m5.4 1.35-.4-1.3q-.25-1.45.55-2.5 1.25-1.6 2.1.6l.35-.85q.5-.85 1.35-.85 1.45 0 .35 2.25l1-.15q1-.05 1.25.5.4.9-1 1.4 1.4.75.9 1.75-.5 1-3.4 1m3.6 3.85q0-.95.3-1.95.6-1.95 1.95-2.1 2.25-.3 1.9 2.75l1.05-.7q1.15-.5 1.95.75 1.25 2-1.5 2.75 2.6.65 1.85 2.35-.75 1.65-2.6-.1 1.6 1.65.05 2.5-.95.55-2.55-1.05l-1.35-1.7m-1.05 5.2.65-2.2-.25-2.9m-25.75-2.1 1-.15 1-.7 1.15-2.9m1.7-1.5 1.25.5 1.7-.25L-3.6-.9-2-2.15m2.15.1q1.35.25 1.95.75l.9.8 1.15-.55 2.5-.2m1.5 1.7 1.4 2.65 2.3 1.25" fill="none" stroke="#9c3690" stroke-linecap="round" stroke-linejoin="round" transform="translate(22.05 12.5)"/><path d="M-10.1.1q1.7-1.35 2.8-.55 1.05.75-.95 2.4-1.95 1.65-2.75.6-.85-1.05.9-2.45" fill="#ff7a69" fill-rule="evenodd" transform="translate(22.05 12.5)"/><path d="M-4.05-2.6q.3-1.55 2.95-1.5 2.7.1 2.8 1.5.1 1.45-3 1.5-3.1.05-2.75-1.5" fill="#0ccfe3" fill-rule="evenodd" transform="translate(22.05 12.5)"/><path d="M5.35-2.1q1.05-.8 3.1.65Q10.5 0 9.3 1.05 8.1 2.1 6.2.4q-1.9-1.7-.85-2.5" fill="#8bff52" fill-rule="evenodd" transform="translate(22.05 12.5)"/><path d="m8.6 8.1 1.9 1.65 2.35 2.8m-26.95 1.7 2.45-3.65 1.65-1 1.5-1.5h.75" fill="none" stroke="#8f3285" stroke-linecap="round" stroke-linejoin="round" transform="translate(22.05 12.5)"/><path d="M-6.4 3.45q-2.9 6.6 0 6.95 2.9.35 3.9-4.45.65 5.5 2.9 4.8Q2.65 10.1 3 6.1q3.4 5.15 4.9 3.75 1.5-1.4-1.4-7.25" fill="none" stroke="#75296d" stroke-linecap="round" stroke-linejoin="round" transform="translate(22.05 12.5)"/><path d="m-13.85 5.2-.4 2.55q-.8 1.35-1.35 1.65-1.25.95-1.8 1.1l.25-1 .6-.75-.05-1.15q.15-1.3.8-2.15.85-1.1 1.95-.25" fill="#c233b2" fill-rule="evenodd" transform="translate(22.05 12.5)"/><path d="M-13.1 4.1q1.6-.05.75 2.75-.8 2.8-2.2 2.55-1.4-.25-.75-2.7.65-2.5 2.2-2.6" fill="#ffcd26" fill-rule="evenodd" transform="translate(22.05 12.5)"/><path d="M12.75 4.25q.6.1 1.5-.75.65.05.35 1.4.95 0 1.8.85-.15.25-.9.55 1.9 3.65.15 2.7-.95-.45-1.6-1.65Q13.3 6.2 12.9 5.1l-.15-.85" fill="#c233b2" fill-rule="evenodd" transform="translate(22.05 12.5)"/><path d="M11.6 2.95q1.35-.55 2.6 2.3 1.2 2.8-.4 3-1.6.2-2.6-2.3-.95-2.5.4-3" fill="#ffd6fa" fill-rule="evenodd" transform="translate(22.05 12.5)"/><path d="M7.35-.5Q8.6.25 9.4 4.2L5.9 1.35 1 0l2.7-.55q2.85-.4 3.65.05M-5.4 1.45l-4.95 4.25Q-10.4 2.45-8.9 1q.7-.65 2.05-.2l1.45.65" fill="#e53cd2" fill-rule="evenodd" transform="translate(22.05 12.5)"/><path d="m6.25 4.75.6 2.5M1.6 5.75 1.35 8.6M-4.75 6l-.65 1.5M3.15-7.25l-.9 1.35m.25-3.35L1.65-7.9m10.1 4.15-1.25 1m9 6.1-.85 1.1m1.2 2.75-1.25.4M16.1.7 16 2.1M-8.25-4.15l-.25 2.5m-1.85-2.6.45 1.2m-6.5 4.75 1.15 2.05m-3.4-.9 1.55 1.65m-2.05 1.1 1.5.65" fill="none" stroke="#ff87f2" stroke-linecap="round" stroke-linejoin="round" transform="translate(22.05 12.5)"/></g></defs></svg>

<?xml version="1.0" encoding="UTF-8" standalone="no"?>
<svg xmlns:xlink="http://www.w3.org/1999/xlink" height="92.9px" width="100.7px" xmlns="http://www.w3.org/2000/svg">
  <g transform="matrix(1.0, 0.0, 0.0, 1.0, 38.65, 49.75)">
    <use height="27.25" transform="matrix(1.0, 0.0, 0.0, 1.0, -22.05, -12.5)" width="43.05" xlink:href="#shape0"/>
  </g>
  <defs>
    <g id="shape0" transform="matrix(1.0, 0.0, 0.0, 1.0, 22.05, 12.5)">
      <path d="M6.75 -0.55 Q8.6 0.4 9.35 2.9 L10.4 3.4 Q11.6 4.15 12.2 5.1 12.95 6.25 12.55 7.2 12.1 8.15 10.85 8.15 9.8 8.15 8.55 6.7 L7.45 5.25 Q9.1 9.6 7.65 9.85 6.7 10.0 4.75 8.2 L3.0 6.35 Q2.05 10.4 0.45 10.6 -0.6 10.7 -1.6 8.7 L-2.4 6.65 Q-4.5 10.65 -6.4 10.4 -7.6 10.3 -7.45 8.1 L-7.05 5.95 Q-9.5 10.3 -11.4 10.1 -15.05 9.6 -13.05 6.35 L-10.5 4.5 -10.0 3.1 Q-9.35 1.6 -8.75 1.15 -7.75 0.5 -4.7 0.35 L-3.9 -0.75 Q-2.75 -1.85 -0.95 -1.9 1.9 -2.0 2.75 -0.65 L4.05 -0.95 Q5.55 -1.15 6.75 -0.55" fill="#e53cd2" fill-rule="evenodd" stroke="none"/>
      <path d="M10.05 3.4 L11.15 4.65 Q12.4 6.25 13.0 7.9 13.95 10.55 12.85 12.55 L11.05 6.3 9.65 3.5 10.05 3.4" fill="#e53cd2" fill-rule="evenodd" stroke="none"/>
      <path d="M9.5 5.15 L12.15 8.25 Q12.55 9.25 12.85 12.55 L8.6 8.1 Q3.25 0.45 9.5 5.15" fill="#e53cd2" fill-rule="evenodd" stroke="none"/>
      <path d="M-10.55 5.3 L-9.95 5.8 Q-9.35 6.5 -9.5 7.45 -9.65 8.6 -11.65 11.2 -12.5 12.65 -14.1 14.25 -14.75 11.4 -13.75 8.85 -13.15 7.3 -11.8 6.15 L-10.55 5.3" fill="#e53cd2" fill-rule="evenodd" stroke="none"/>
      <path d="M11.5 9.25 L9.55 3.1 10.25 3.6 12.15 4.15 Q13.8 4.3 14.05 3.35 L15.1 6.9 Q14.95 6.6 13.7 7.3 L11.5 9.25" fill="#e53cd2" fill-rule="evenodd" stroke="none"/>
      <path d="M17.8 10.1 Q16.7 10.6 15.0 8.9 13.55 7.45 12.6 5.45 12.75 4.1 13.15 2.7 13.9 -0.05 15.1 -0.2 17.0 -0.45 17.0 2.55 L17.85 1.9 Q18.85 1.45 19.85 2.4 21.45 3.9 18.15 4.9 L19.15 5.35 Q20.2 5.95 20.4 6.85 20.7 8.35 18.6 7.85 19.4 9.4 17.8 10.1" fill="#e53cd2" fill-rule="evenodd" stroke="none"/>
      <path d="M-10.45 4.85 Q-12.0 10.05 -13.45 9.15 L-15.7 8.2 -15.45 5.2 -13.15 5.25 -10.45 4.85" fill="#e53cd2" fill-rule="evenodd" stroke="none"/>
      <path d="M-14.55 3.0 Q-13.8 4.75 -13.75 6.85 -16.65 12.15 -18.45 11.4 -20.25 10.7 -19.0 8.0 -20.8 8.95 -21.6 6.8 -22.05 5.5 -20.6 5.3 L-19.0 5.4 Q-20.6 4.0 -20.25 2.55 -20.05 1.65 -19.1 2.0 L-18.2 2.5 Q-18.3 0.75 -16.55 0.9 -15.35 1.0 -14.55 3.0" fill="#e53cd2" fill-rule="evenodd" stroke="none"/>
      <path d="M0.9 -5.65 L0.95 -2.75 Q1.1 -1.3 2.4 0.05 L-4.4 0.35 Q-3.4 -0.45 -2.85 -2.15 -2.35 -3.85 -2.4 -5.2 L0.9 -5.65" fill="#e53cd2" fill-rule="evenodd" stroke="none"/>
      <path d="M2.05 -0.65 L1.65 -0.65 1.65 -0.3 -0.95 -0.4 -3.6 0.1 -2.75 -1.55 -1.85 -1.55 Q0.85 -2.5 2.05 -0.65" fill="#c233b2" fill-rule="evenodd" stroke="none"/>
      <path d="M2.45 -4.7 Q0.7 -3.25 -1.2 -2.75 -6.05 -5.35 -5.75 -7.4 -5.5 -9.4 -2.8 -8.65 L-3.2 -9.65 Q-3.35 -10.85 -2.25 -11.65 -0.45 -12.9 -0.4 -9.25 L0.25 -10.2 Q1.1 -11.2 1.95 -11.15 3.35 -11.1 2.35 -9.0 4.0 -9.45 4.2 -7.6 4.35 -6.3 2.45 -4.7" fill="#e53cd2" fill-rule="evenodd" stroke="none"/>
      <path d="M0.85 -3.55 Q-0.55 -2.6 -1.5 -3.05 L-2.0 -3.3 -3.4 -4.6 Q-4.6 -5.45 -4.5 -5.9 -4.35 -6.8 -2.05 -5.35 L-1.55 -6.55 Q-1.3 -6.9 -0.75 -6.1 -0.35 -5.5 0.35 -5.5 L2.05 -5.55 Q2.3 -4.5 0.85 -3.55" fill="#c233b2" fill-rule="evenodd" stroke="none"/>
      <path d="M3.35 -0.2 L6.2 -1.85 Q7.2 -2.65 7.05 -2.75 L9.7 -1.3 8.95 -0.3 8.75 1.85 3.35 -0.2" fill="#e53cd2" fill-rule="evenodd" stroke="none"/>
      <path d="M9.95 -6.75 Q11.65 -6.8 10.2 -4.35 L11.0 -4.7 12.5 -4.5 Q13.35 -3.85 11.9 -2.95 13.15 -2.5 12.55 -1.2 12.15 -0.3 10.15 -0.15 8.35 -0.05 6.95 -0.6 6.45 -1.55 6.1 -2.65 5.4 -4.85 6.0 -5.6 6.95 -6.8 8.45 -5.05 L8.6 -5.9 Q8.9 -6.75 9.95 -6.75" fill="#e53cd2" fill-rule="evenodd" stroke="none"/>
      <path d="M9.35 -1.15 Q10.4 -1.3 10.15 -0.55 10.1 -0.3 8.95 -0.3 7.9 -0.35 6.75 -1.75 L6.75 -1.8 Q6.4 -2.6 6.4 -3.55 7.25 -3.85 7.65 -3.3 8.2 -2.55 8.3 -2.55 L9.65 -2.45 Q9.9 -2.15 9.35 -1.15" fill="#c233b2" fill-rule="evenodd" stroke="none"/>
      <path d="M-9.1 -1.45 L-8.25 -0.1 Q-7.45 0.45 -5.9 0.6 L-9.5 3.8 -10.65 1.2 Q-10.85 0.4 -11.15 0.4 L-11.4 0.55 -9.1 -1.45" fill="#e53cd2" fill-rule="evenodd" stroke="none"/>
      <path d="M-11.2 -5.35 Q-10.3 -6.0 -9.6 -4.3 L-9.05 -4.7 Q-8.4 -4.95 -7.85 -4.3 -7.2 -3.55 -7.75 -1.7 -8.25 -0.05 -9.25 1.2 -13.4 2.1 -14.1 0.65 -14.5 -0.2 -13.65 -1.0 L-12.7 -1.6 Q-14.2 -2.05 -13.65 -3.75 -13.05 -5.4 -11.45 -3.1 L-11.65 -4.0 Q-11.75 -4.95 -11.2 -5.35" fill="#e53cd2" fill-rule="evenodd" stroke="none"/>
      <path d="M-12.45 -0.55 Q-11.75 -1.6 -9.65 -0.9 L-9.25 -1.25 -8.75 -1.35 Q-8.15 -1.1 -8.15 -0.25 L-8.5 0.45 Q-8.75 1.2 -11.0 0.95 -13.25 0.7 -12.45 -0.55" fill="#c233b2" fill-rule="evenodd" stroke="none"/>
      <path d="M-13.65 5.0 Q-15.75 -0.25 -17.35 0.85 -18.85 1.9 -18.25 2.45 L-19.15 1.95 Q-20.15 1.65 -20.25 2.75 -20.4 4.6 -18.85 5.5 L-20.4 5.45 Q-21.9 5.65 -21.4 7.0 -20.6 9.2 -19.0 8.0 -19.85 11.2 -18.1 11.5 -16.35 11.85 -14.1 7.95" fill="none" stroke="#9c3690" stroke-linecap="round" stroke-linejoin="round" stroke-width="1.0"/>
      <path d="M-13.9 7.75 L-14.25 11.35 -14.1 14.25" fill="none" stroke="#9c3690" stroke-linecap="round" stroke-linejoin="round" stroke-width="1.0"/>
      <path d="M-8.1 0.1 Q-6.35 -3.75 -7.75 -4.9 -8.6 -5.6 -9.2 -5.05 L-9.6 -4.3 Q-10.2 -6.35 -11.1 -5.65 -11.65 -5.2 -11.65 -4.2 L-11.5 -3.3 Q-13.35 -5.05 -13.75 -3.5 -14.15 -1.9 -12.7 -1.6 L-13.8 -0.75 Q-14.7 0.2 -14.0 0.95 -12.85 2.1 -10.25 1.35" fill="none" stroke="#9c3690" stroke-linecap="round" stroke-linejoin="round" stroke-width="1.0"/>
      <path d="M-2.7 -3.5 Q-6.3 -5.6 -5.65 -7.85 -4.95 -10.1 -2.8 -8.65 L-3.2 -9.6 Q-3.4 -10.75 -2.25 -11.65 -0.4 -13.0 -0.4 -9.25 L0.3 -10.4 Q1.2 -11.45 2.3 -10.95 4.1 -10.15 2.3 -8.75 4.75 -10.1 4.6 -7.2 4.5 -4.75 0.8 -3.2" fill="none" stroke="#9c3690" stroke-linecap="round" stroke-linejoin="round" stroke-width="1.0"/>
      <path d="M6.2 -1.85 L5.8 -3.15 Q5.55 -4.6 6.35 -5.65 7.6 -7.25 8.45 -5.05 L8.8 -5.9 Q9.3 -6.75 10.15 -6.75 11.6 -6.75 10.5 -4.5 L11.5 -4.65 Q12.5 -4.7 12.75 -4.15 13.15 -3.25 11.75 -2.75 13.15 -2.0 12.65 -1.0 12.15 0.0 9.25 0.0" fill="none" stroke="#9c3690" stroke-linecap="round" stroke-linejoin="round" stroke-width="1.0"/>
      <path d="M12.85 3.85 Q12.85 2.9 13.15 1.9 13.75 -0.05 15.1 -0.2 17.35 -0.5 17.0 2.55 L18.05 1.85 Q19.2 1.35 20.0 2.6 21.25 4.6 18.5 5.35 21.1 6.0 20.35 7.7 19.6 9.35 17.75 7.6 19.35 9.25 17.8 10.1 16.85 10.65 15.25 9.05 L13.9 7.35" fill="none" stroke="#9c3690" stroke-linecap="round" stroke-linejoin="round" stroke-width="1.0"/>
      <path d="M12.85 12.55 L13.5 10.35 13.25 7.45" fill="none" stroke="#9c3690" stroke-linecap="round" stroke-linejoin="round" stroke-width="1.0"/>
      <path d="M-12.5 5.35 L-11.5 5.2 -10.5 4.5 -9.35 1.6" fill="none" stroke="#9c3690" stroke-linecap="round" stroke-linejoin="round" stroke-width="1.0"/>
      <path d="M-7.65 0.1 L-6.4 0.6 -4.7 0.35 -3.6 -0.9 -2.0 -2.15" fill="none" stroke="#9c3690" stroke-linecap="round" stroke-linejoin="round" stroke-width="1.0"/>
      <path d="M0.15 -2.05 Q1.5 -1.8 2.1 -1.3 L3.0 -0.5 4.15 -1.05 6.65 -1.25" fill="none" stroke="#9c3690" stroke-linecap="round" stroke-linejoin="round" stroke-width="1.0"/>
      <path d="M8.15 0.45 L9.55 3.1 11.85 4.35" fill="none" stroke="#9c3690" stroke-linecap="round" stroke-linejoin="round" stroke-width="1.0"/>
      <path d="M-10.1 0.1 Q-8.4 -1.25 -7.3 -0.45 -6.25 0.3 -8.25 1.95 -10.2 3.6 -11.0 2.55 -11.85 1.5 -10.1 0.1" fill="#ff7a69" fill-rule="evenodd" stroke="none"/>
      <path d="M-4.05 -2.6 Q-3.75 -4.15 -1.1 -4.1 1.6 -4.0 1.7 -2.6 1.8 -1.15 -1.3 -1.1 -4.4 -1.05 -4.05 -2.6" fill="#0ccfe3" fill-rule="evenodd" stroke="none"/>
      <path d="M5.35 -2.1 Q6.4 -2.9 8.45 -1.45 10.5 0.0 9.3 1.05 8.1 2.1 6.2 0.4 4.3 -1.3 5.35 -2.1" fill="#8bff52" fill-rule="evenodd" stroke="none"/>
      <path d="M8.6 8.1 L10.5 9.75 12.85 12.55" fill="none" stroke="#8f3285" stroke-linecap="round" stroke-linejoin="round" stroke-width="1.0"/>
      <path d="M-14.1 14.25 L-11.65 10.6 -10.0 9.6 -8.5 8.1 -7.75 8.1" fill="none" stroke="#8f3285" stroke-linecap="round" stroke-linejoin="round" stroke-width="1.0"/>
      <path d="M-6.4 3.45 Q-9.3 10.05 -6.4 10.4 -3.5 10.75 -2.5 5.95 -1.85 11.45 0.4 10.75 2.65 10.1 3.0 6.1 6.4 11.25 7.9 9.85 9.4 8.45 6.5 2.6" fill="none" stroke="#75296d" stroke-linecap="round" stroke-linejoin="round" stroke-width="1.0"/>
      <path d="M-13.85 5.2 L-14.25 7.75 Q-15.05 9.1 -15.6 9.4 -16.85 10.35 -17.4 10.5 L-17.15 9.5 -16.55 8.75 -16.6 7.6 Q-16.45 6.3 -15.8 5.45 -14.95 4.35 -13.85 5.2" fill="#c233b2" fill-rule="evenodd" stroke="none"/>
      <path d="M-13.1 4.1 Q-11.5 4.05 -12.35 6.85 -13.15 9.65 -14.55 9.4 -15.95 9.15 -15.3 6.7 -14.65 4.2 -13.1 4.1" fill="#ffcd26" fill-rule="evenodd" stroke="none"/>
      <path d="M12.75 4.25 Q13.35 4.35 14.25 3.5 14.9 3.55 14.6 4.9 15.55 4.9 16.4 5.75 16.25 6.0 15.5 6.3 17.4 9.95 15.65 9.0 14.7 8.55 14.05 7.35 13.3 6.2 12.9 5.1 L12.75 4.25" fill="#c233b2" fill-rule="evenodd" stroke="none"/>
      <path d="M11.6 2.95 Q12.95 2.4 14.2 5.25 15.4 8.05 13.8 8.25 12.2 8.45 11.2 5.95 10.25 3.45 11.6 2.95" fill="#ffd6fa" fill-rule="evenodd" stroke="none"/>
      <path d="M7.35 -0.5 Q8.6 0.25 9.4 4.2 L5.9 1.35 1.0 0.0 3.7 -0.55 Q6.55 -0.95 7.35 -0.5" fill="#e53cd2" fill-rule="evenodd" stroke="none"/>
      <path d="M-5.4 1.45 L-10.35 5.7 Q-10.4 2.45 -8.9 1.0 -8.2 0.35 -6.85 0.8 L-5.4 1.45" fill="#e53cd2" fill-rule="evenodd" stroke="none"/>
      <path d="M6.25 4.75 L6.85 7.25" fill="none" stroke="#ff87f2" stroke-linecap="round" stroke-linejoin="round" stroke-width="1.0"/>
      <path d="M1.6 5.75 L1.35 8.6" fill="none" stroke="#ff87f2" stroke-linecap="round" stroke-linejoin="round" stroke-width="1.0"/>
      <path d="M-4.75 6.0 L-5.4 7.5" fill="none" stroke="#ff87f2" stroke-linecap="round" stroke-linejoin="round" stroke-width="1.0"/>
      <path d="M3.15 -7.25 L2.25 -5.9" fill="none" stroke="#ff87f2" stroke-linecap="round" stroke-linejoin="round" stroke-width="1.0"/>
      <path d="M2.5 -9.25 L1.65 -7.9" fill="none" stroke="#ff87f2" stroke-linecap="round" stroke-linejoin="round" stroke-width="1.0"/>
      <path d="M11.75 -3.75 L10.5 -2.75" fill="none" stroke="#ff87f2" stroke-linecap="round" stroke-linejoin="round" stroke-width="1.0"/>
      <path d="M19.5 3.35 L18.65 4.45" fill="none" stroke="#ff87f2" stroke-linecap="round" stroke-linejoin="round" stroke-width="1.0"/>
      <path d="M19.85 7.2 L18.6 7.6" fill="none" stroke="#ff87f2" stroke-linecap="round" stroke-linejoin="round" stroke-width="1.0"/>
      <path d="M16.1 0.7 L16.0 2.1" fill="none" stroke="#ff87f2" stroke-linecap="round" stroke-linejoin="round" stroke-width="1.0"/>
      <path d="M-8.25 -4.15 L-8.5 -1.65" fill="none" stroke="#ff87f2" stroke-linecap="round" stroke-linejoin="round" stroke-width="1.0"/>
      <path d="M-10.35 -4.25 L-9.9 -3.05" fill="none" stroke="#ff87f2" stroke-linecap="round" stroke-linejoin="round" stroke-width="1.0"/>
      <path d="M-16.4 1.7 L-15.25 3.75" fill="none" stroke="#ff87f2" stroke-linecap="round" stroke-linejoin="round" stroke-width="1.0"/>
      <path d="M-18.65 2.85 L-17.1 4.5" fill="none" stroke="#ff87f2" stroke-linecap="round" stroke-linejoin="round" stroke-width="1.0"/>
      <path d="M-19.15 5.6 L-17.65 6.25" fill="none" stroke="#ff87f2" stroke-linecap="round" stroke-linejoin="round" stroke-width="1.0"/>
    </g>
  </defs>
</svg>
